Flat-Remix-Dark/apps/scalable/freeplane.svg

<svg xmlns="http://www.w3.org/2000/svg" xmlns:xlink="http://www.w3.org/1999/xlink" width="384pt" height="384pt" version="1.1" viewBox="0 0 384 384"> <defs> <filter id="alpha" width="100%" height="100%" x="0%" y="0%" filterUnits="objectBoundingBox"> <feColorMatrix in="SourceGraphic" type="matrix" values="0 0 0 0 1 0 0 0 0 1 0 0 0 0 1 0 0 0 1 0"/> </filter> <mask id="mask0"> <g filter="url(#alpha)"> <rect width="384" height="384" x="0" y="0" style="fill:rgb(0%,0%,0%);fill-opacity:0.2"/> </g> </mask> <clipPath id="clip1"> <rect width="384" height="384" x="0" y="0"/> </clipPath> <g id="surface5" clip-path="url(#clip1)"> <path style="fill:rgb(0%,0%,0%)" d="M 192.003906 30.007812 C 98.9375 30.007812 24.011719 104.933594 24.011719 198.003906 C 24.011719 291.074219 98.9375 366 192.003906 366 C 285.074219 366 360 291.074219 360 198.003906 C 360 104.933594 285.074219 30.007812 192.003906 30.007812 Z M 192.003906 30.007812"/> </g> <mask id="mask1"> <g filter="url(#alpha)"> <rect width="384" height="384" x="0" y="0" style="fill:rgb(0%,0%,0%);fill-opacity:0.2"/> </g> </mask> <clipPath id="clip2"> <rect width="384" height="384" x="0" y="0"/> </clipPath> <g id="surface8" clip-path="url(#clip2)"> <path style="fill:rgb(100.000%,100.000%,100.000%)" d="M 192 24.011719 C 98.929688 24.011719 24.011719 98.929688 24.011719 192 C 24.011719 192.65625 24.070312 193.296875 24.105469 193.945312 C 26.25 102.769531 100.289062 30 192 30 C 283.734375 30 357.785156 102.808594 359.894531 194.015625 C 359.933594 193.34375 360 192.679688 360 192 C 360 98.929688 285.070312 24.011719 192 24.011719 Z M 192 24.011719"/> </g> <mask id="mask2"> <g filter="url(#alpha)"> <rect width="384" height="384" x="0" y="0" style="fill:rgb(0%,0%,0%);fill-opacity:0.2"/> </g> </mask> <clipPath id="clip3"> <rect width="384" height="384" x="0" y="0"/> </clipPath> <g id="surface11" clip-path="url(#clip3)"> <path style="fill:rgb(0%,0%,0%)" d="M 300.007812 216.007812 C 300.007812 252.457031 270.457031 282.007812 234.007812 282.007812 C 197.554688 282.007812 168.007812 252.457031 168.007812 216.007812 C 168.007812 179.554688 197.554688 150.007812 234.007812 150.007812 C 270.457031 150.007812 300.007812 179.554688 300.007812 216.007812 Z M 300.007812 216.007812"/> </g> <mask id="mask3"> <g filter="url(#alpha)"> <rect width="384" height="384" x="0" y="0" style="fill:rgb(0%,0%,0%);fill-opacity:0.2"/> </g> </mask> <clipPath id="clip4"> <rect width="384" height="384" x="0" y="0"/> </clipPath> <g id="surface14" clip-path="url(#clip4)"> <path style="fill:rgb(0%,0%,0%)" d="M 384 174.007812 C 384 200.515625 362.507812 222.007812 336 222.007812 C 309.492188 222.007812 288 200.515625 288 174.007812 C 288 147.496094 309.492188 126.007812 336 126.007812 C 362.507812 126.007812 384 147.496094 384 174.007812 Z M 384 174.007812"/> </g> <mask id="mask4"> <g filter="url(#alpha)"> <rect width="384" height="384" x="0" y="0" style="fill:rgb(0%,0%,0%);fill-opacity:0.101961"/> </g> </mask> <clipPath id="clip5"> <rect width="384" height="384" x="0" y="0"/> </clipPath> <g id="surface17" clip-path="url(#clip5)"> <path style="fill:rgb(0%,0%,0%)" d="M 288.003906 326 C 288.003906 326 266.511719 342 240.003906 342 C 213.496094 342 192.003906 311.675781 192.003906 294.003906 C 192.003906 294.003906 217.445312 312.539062 232.003906 318 C 259.527344 328.328125 288.003906 326 288.003906 326 Z M 288.003906 326"/> </g> <mask id="mask5"> <g filter="url(#alpha)"> <rect width="384" height="384" x="0" y="0" style="fill:rgb(0%,0%,0%);fill-opacity:0.2"/> </g> </mask> <clipPath id="clip6"> <rect width="384" height="384" x="0" y="0"/> </clipPath> <g id="surface20" clip-path="url(#clip6)"> <path style="fill:rgb(0%,0%,0%)" d="M 94.859375 242.78125 C 131.816406 225.121094 164.445312 234.945312 167.738281 264.722656 C 171.027344 294.5 143.734375 332.953125 106.773438 350.613281 C 69.8125 368.269531 3.429688 312.613281 0.136719 282.835938 C -3.152344 253.058594 57.898438 260.4375 94.859375 242.78125 Z M 94.859375 242.78125"/> </g> <mask id="mask6"> <g filter="url(#alpha)"> <rect width="384" height="384" x="0" y="0" style="fill:rgb(0%,0%,0%);fill-opacity:0.2"/> </g> </mask> <clipPath id="clip7"> <rect width="384" height="384" x="0" y="0"/> </clipPath> <g id="surface23" clip-path="url(#clip7)"> <path style="fill:rgb(100.000%,100.000%,100.000%)" d="M 128.964844 228.011719 C 118.652344 228.148438 106.992188 230.972656 94.863281 236.765625 C 57.902344 254.421875 -3.160156 247.066406 0.128906 276.84375 C 0.152344 277.058594 0.246094 277.304688 0.28125 277.523438 C 4.648438 253.925781 60.296875 259.28125 94.863281 242.765625 C 108.722656 236.144531 121.976562 233.40625 133.300781 234.117188 C 152.171875 235.300781 165.695312 246.117188 167.753906 264.726562 C 167.824219 265.347656 167.792969 265.996094 167.835938 266.625 C 168 263.945312 168.039062 261.296875 167.753906 258.726562 C 165.695312 240.117188 152.171875 229.300781 133.300781 228.117188 C 131.886719 228.027344 130.4375 227.992188 128.964844 228.011719 Z M 128.964844 228.011719"/> </g> </defs> <g> <use mask="url(#mask0)" xlink:href="#surface5"/> <path style="fill:rgb(100.000%,78.039%,18.823%)" d="M 192.003906 24.007812 C 98.9375 24.007812 24.011719 98.933594 24.011719 192.003906 C 24.011719 285.074219 98.9375 360 192.003906 360 C 285.074219 360 360 285.074219 360 192.003906 C 360 98.933594 285.074219 24.007812 192.003906 24.007812 Z M 192.003906 24.007812"/> <path style="fill:rgb(29.803%,29.803%,29.803%)" d="M 194.613281 24.074219 C 101.714844 59.574219 38.363281 146.414062 32.886719 245.765625 C 42.679688 274.925781 60.164062 300.4375 83.039062 319.921875 C 82.894531 316.558594 82.816406 313.195312 82.808594 309.832031 C 82.910156 185.289062 173.855469 79.472656 296.902344 60.726562 C 268.820312 38.289062 233.375 24.664062 194.613281 24.074219 Z M 194.613281 24.074219"/> <path style="fill:rgb(29.803%,29.803%,29.803%)" d="M 315.835938 78.542969 C 195.671875 99.960938 108.113281 204.464844 108.007812 326.597656 C 108.117188 330.347656 108.308594 334.09375 108.582031 337.835938 C 124.144531 346.730469 141.214844 353.296875 159.421875 356.851562 C 168.148438 249.195312 244.417969 159.054688 349.089844 132.679688 C 341.488281 112.457031 330.144531 94.15625 315.835938 78.542969 Z M 315.835938 78.542969"/> <use mask="url(#mask1)" xlink:href="#surface8"/> <use mask="url(#mask2)" xlink:href="#surface11"/> <use mask="url(#mask3)" xlink:href="#surface14"/> <path style="fill:rgb(100.000%,100.000%,100.000%)" d="M 300.007812 210.007812 C 300.007812 246.457031 270.457031 276.007812 234.007812 276.007812 C 197.554688 276.007812 168.007812 246.457031 168.007812 210.007812 C 168.007812 173.554688 197.554688 144.007812 234.007812 144.007812 C 270.457031 144.007812 300.007812 173.554688 300.007812 210.007812 Z M 300.007812 210.007812"/> <path style="fill:rgb(29.803%,29.803%,29.803%)" d="M 252.007812 234.007812 C 252.007812 250.574219 238.574219 264.007812 222.007812 264.007812 C 205.4375 264.007812 192.007812 250.574219 192.007812 234.007812 C 192.007812 217.4375 205.4375 204.007812 222.007812 204.007812 C 238.574219 204.007812 252.007812 217.4375 252.007812 234.007812 Z M 252.007812 234.007812"/> <path style="fill:rgb(100.000%,100.000%,100.000%)" d="M 384 168.007812 C 384 194.515625 362.507812 216.007812 336 216.007812 C 309.492188 216.007812 288 194.515625 288 168.007812 C 288 141.496094 309.492188 120.007812 336 120.007812 C 362.507812 120.007812 384 141.496094 384 168.007812 Z M 384 168.007812"/> <path style="fill:rgb(29.803%,29.803%,29.803%)" d="M 348 180.007812 C 348 193.261719 337.253906 204.007812 324 204.007812 C 310.746094 204.007812 300 193.261719 300 180.007812 C 300 166.75 310.746094 156.007812 324 156.007812 C 337.253906 156.007812 348 166.75 348 180.007812 Z M 348 180.007812"/> <use mask="url(#mask4)" xlink:href="#surface17"/> <path style="fill:rgb(29.803%,29.803%,29.803%)" d="M 288.003906 320 C 288.003906 320 266.511719 336 240.003906 336 C 213.496094 336 192.003906 305.675781 192.003906 288.003906 C 192.003906 288.003906 217.445312 306.539062 232.003906 312 C 259.527344 322.328125 288.003906 320 288.003906 320 Z M 288.003906 320"/> <use mask="url(#mask5)" xlink:href="#surface20"/> <path style="fill:rgb(80.000%,80.000%,80.000%)" d="M 94.859375 236.78125 C 131.816406 219.121094 164.445312 228.949219 167.738281 258.722656 C 171.027344 288.5 143.734375 326.953125 106.773438 344.613281 C 69.8125 362.269531 3.429688 306.613281 0.136719 276.835938 C -3.152344 247.058594 57.898438 254.4375 94.859375 236.78125 Z M 94.859375 236.78125"/> <use mask="url(#mask6)" xlink:href="#surface23"/> </g> </svg>

<svg width="512" height="512" version="1.1" viewBox="0 0 384 384" xmlns="http://www.w3.org/2000/svg"><path d="m192 24.008c-93.066 0-167.99 74.926-167.99 168 0 93.07 74.926 168 167.99 168 93.07 0 168-74.926 168-168 0-93.07-74.926-168-168-168z" fill="#ffc72e"/><path transform="scale(.75)" d="m32.078 251.01c-0.036081 1.6629-0.0625 3.3281-0.0625 5 0 124.09 99.902 223.99 223.99 223.99 124.09 0 223.99-99.9 223.99-223.99 0-1.6719-0.02642-3.3371-0.0625-5-2.642 121.77-101.51 218.99-223.93 218.99s-221.29-97.229-223.93-218.99z" opacity=".3" stroke-width="1.3333"/><path d="m194.61 24.074c-92.898 35.5-156.25 122.34-161.73 221.69 9.793 29.16 27.277 54.672 50.152 74.156-0.14453-3.3633-0.22266-6.7266-0.23047-10.09 0.10156-124.54 91.047-230.36 214.09-249.11-28.082-22.438-63.527-36.062-102.29-36.652z"/><path d="m315.84 78.543c-120.16 21.418-207.72 125.92-207.83 248.05 0.10938 3.75 0.30078 7.4961 0.57422 11.238 15.562 8.8945 32.633 15.461 50.84 19.016 8.7266-107.66 84.996-197.8 189.67-224.17-7.6016-20.223-18.945-38.523-33.254-54.137z"/><path d="m300.01 217.51c0 36.449-29.551 66-66 66-36.453 0-66-29.551-66-66 0-36.453 29.547-66 66-66 36.449 0 66 29.547 66 66z" opacity=".3"/><path d="m300.01 210.01c0 36.449-29.551 66-66 66-36.453 0-66-29.551-66-66 0-36.453 29.547-66 66-66 36.449 0 66 29.547 66 66z" fill="#fff"/><path d="m384 175.51c0 26.508-21.492 48-48 48s-48-21.492-48-48c0-26.512 21.492-48 48-48s48 21.488 48 48z" opacity=".3"/><path d="m252.01 234.01c0 16.566-13.434 30-30 30-16.57 0-30-13.434-30-30 0-16.57 13.43-30 30-30 16.566 0 30 13.43 30 30z"/><path d="m384 168.01c0 26.508-21.492 48-48 48s-48-21.492-48-48c0-26.512 21.492-48 48-48s48 21.488 48 48z" fill="#fff"/><path d="m348 180.01c0 13.254-10.746 24-24 24s-24-10.746-24-24c0-13.258 10.746-24 24-24s24 10.742 24 24z"/><path d="m288 324.5s-21.492 16-48 16-48-30.324-48-47.996c0 0 25.441 18.535 40 23.996 27.523 10.328 56 8 56 8z" opacity=".3"/><path d="m288 320s-21.492 16-48 16-48-30.324-48-47.996c0 0 25.441 18.535 40 23.996 27.523 10.328 56 8 56 8z"/><path d="m96.892 244.28c36.957-17.66 69.586-7.832 72.879 21.941 3.2891 29.777-24.004 68.23-60.965 85.891-36.961 17.656-103.34-38-106.64-67.777-3.2891-29.777 57.762-22.398 94.723-40.055z" opacity=".3"/><path d="m96.892 236.78c36.957-17.66 69.586-7.832 72.879 21.941 3.2891 29.777-24.004 68.23-60.965 85.891-36.961 17.656-103.34-38-106.64-67.777-3.2891-29.777 57.762-22.398 94.723-40.055z" fill="#fff"/><path transform="scale(.75)" d="m256.01 32.01c-124.09 0-223.99 99.902-223.99 224 0 1.6719 0.026419 3.3371 0.0625 5 2.642-121.77 101.51-219 223.93-219s221.29 97.231 223.93 219c0.03608-1.6629 0.0625-3.3281 0.0625-5 0-124.09-99.9-224-223.99-224z" fill="#fff" opacity=".3" stroke-width="1.3333"/></svg>
